X: 2
T: Baby Rory's
R: slip jig
M: 9/8
L: 1/8
K: Gmaj
|:A3 AGE G3|A3 AGE GED|A3 AGE G2 E|D3 DEF GED|
ABA AGE G3|A3 AGE GED|ABA AGE G2 E|D3 DEF GED||
|:GAB deB d2 B|GAB dge dBA|GAB deB d2 B|A3 AGE GED|
GAB deB d2 B|GAB dge dBA|GAB deB d2 B|ABA AGE GED||


Tune 1536	Setting 1536

